public/img/icons/alien.svg

<svg width="64" height="64" viewBox="0 0 64 64" fill="none" xmlns="http://www.w3.org/2000/svg">
<path d="M51.9894 27.4009V15.3961H43.0863V7.30432H38.9124V15.3962H25.0876V7.30432H20.9137V15.3962H12.0106V27.4011H0V41.3589H4.17387V31.5749H12.0105V43.4458H20.9137V52.5217H17.0653V56.6956H25.0876V43.4459H38.9124V56.6956H46.9347V52.5217H43.0863V43.4459H51.9895V31.5751H59.826V41.3589H64V27.4009H51.9894ZM25.2424 31.3089H20.7589V26.8254H25.2424V31.3089ZM43.241 31.3089H38.7575V26.8254H43.241V31.3089Z" fill="white"/>
</svg>

<svg xmlns="http://www.w3.org/2000/svg" width="64" height="64" fill="none" viewBox="0 0 64 64"><path fill="#fff" d="M51.99 27.4V15.397h-8.904V7.304h-4.174v8.092H25.088V7.304h-4.174v8.092H12.01v12.005H0V41.36h4.174v-9.784h7.837v11.87h8.903v9.077h-3.849v4.174h8.023v-13.25h13.824v13.25h8.023v-4.174h-3.849v-9.076h8.904v-11.87h7.836v9.783H64V27.4zm-26.749 3.91H20.76v-4.484h4.483zm17.999 0h-4.483v-4.484h4.483z"/></svg>
